X:1
T:McLeod's Reel
C:Arr. by John Ciaglia
M:2/4
L:1/16
K:G
[V:1] BA|.G2&quot;^_&quot;g2 edeg|B2{c}BA B2BA|.G2&quot;^_&quot;g2 edeg|A2{B}AG AcBA|
[V:2] BA| GDGB     c2ce|dBGE    D2BA| GDGB     c2ce|dcAF    D2FA|
%
[V:1]    .G2&quot;^_&quot;g2 edeg|B2{c}BA B2d2| e3 f     edef|gedB    A2 :|
[V:2]     GDGB     c2ce|dBGE    D2B2| c3 A     c2c2|B2G2    F2 :|
%
[V:1] BA| GABc     dBGA|BcBA    BcBA| GABc     dBGB|A2{B}AG AcBA|
[V:2] D2| B2G2     BGD2|G2d2    B2D2| B2G2     BGD2|dcAD    F2c2|
%
[V:1]     GABc     dBGA|BcBA    B2d2| e3 f     edef|gedB    A2 :|
[V:2]     B2G2     BGD2|G2d2    gdB2| c3 G     c2c2|B2G2    F2 :|
